X:102
T:Gigue de l'\'egouttage
C:Nicolas Williams
Z:robin.beech@mcgill.ca
M:6/8
L:1/8
K:G
d2G GFG | BAB d2g | efg dfg | edB ABc | d2G GFG | BAB d2g | efg dcA |1 AGF G2B :|2
AGF GBd |: e3 dBG | ABA GBd | e3 dfg | edB ABc | dBG GFG | BAB d2g | efg dcA | AGF GBd :|

